public/assets/improve.svg

<svg viewBox="0 0 50 50" fill="none" xmlns="http://www.w3.org/2000/svg">
<path d="M25.0011 39.0034C22.2321 39.0034 19.5254 38.1823 17.2231 36.6439C14.9208 35.1056 13.1264 32.9191 12.0668 30.361C11.0072 27.8028 10.7299 24.9879 11.2701 22.2721C11.8103 19.5564 13.1437 17.0619 15.1016 15.1039C17.0595 13.146 19.5541 11.8126 22.2698 11.2724C24.9855 10.7322 27.8005 11.0095 30.3586 12.0691C32.9168 13.1287 35.1033 14.9231 36.6416 17.2254C38.18 19.5277 39.0011 22.2345 39.0011 25.0034C39.0011 28.7164 37.5261 32.2774 34.9006 34.9029C32.2751 37.5284 28.7141 39.0034 25.0011 39.0034ZM25.0011 12.3368C22.4959 12.3368 20.0469 13.0796 17.9639 14.4715C15.8808 15.8633 14.2573 17.8416 13.2986 20.1561C12.3399 22.4706 12.0891 25.0174 12.5778 27.4745C13.0666 29.9316 14.2729 32.1886 16.0444 33.9601C17.8159 35.7315 20.0729 36.9379 22.5299 37.4267C24.987 37.9154 27.5339 37.6646 29.8484 36.7058C32.1629 35.7471 34.1412 34.1236 35.533 32.0406C36.9248 29.9576 37.6677 27.5086 37.6677 25.0034C37.6677 21.644 36.3332 18.4222 33.9577 16.0467C31.5823 13.6713 28.3605 12.3368 25.0011 12.3368Z" fill="#A8A5CE" stroke="#A8A5CE"/>
<path d="M27.3334 48.9999H22.6667C22.0785 48.9981 21.5148 48.7637 21.0989 48.3477C20.6829 47.9318 20.4485 47.3681 20.4467 46.7799V44.5932C18.2343 44.083 16.126 43.1968 14.2134 41.9733L12.9134 43.3066C12.7072 43.5128 12.4625 43.6764 12.1931 43.788C11.9237 43.8996 11.635 43.957 11.3434 43.957C11.0518 43.957 10.7631 43.8996 10.4937 43.788C10.2243 43.6764 9.97956 43.5128 9.77341 43.3066L6.47341 39.9733C6.2672 39.7671 6.10362 39.5223 5.99202 39.253C5.88041 38.9836 5.82297 38.6948 5.82297 38.4033C5.82297 38.1117 5.88041 37.8229 5.99202 37.5536C6.10362 37.2842 6.2672 37.0394 6.47341 36.8333L7.80674 35.4999C6.68696 33.6688 5.8677 31.6702 5.38008 29.5799H3.22009C2.92655 29.5791 2.63608 29.5202 2.36539 29.4066C2.09469 29.2931 1.84912 29.1271 1.6428 28.9184C1.43648 28.7096 1.27348 28.462 1.16318 28.19C1.05288 27.918 0.997452 27.6268 1.00009 27.3333V22.6666C1.00185 22.0784 1.23631 21.5147 1.65225 21.0988C2.0682 20.6828 2.63185 20.4484 3.22009 20.4466H5.40675C5.92436 18.204 6.82659 16.0679 8.07341 14.1333L6.46675 12.5266C6.04987 12.1092 5.81573 11.5433 5.81573 10.9533C5.81573 10.3633 6.04987 9.79747 6.46675 9.37998L9.76674 6.07999C9.97289 5.87378 10.2177 5.7102 10.487 5.59859C10.7564 5.48699 11.0451 5.42954 11.3367 5.42954C11.6283 5.42954 11.9171 5.48699 12.1864 5.59859C12.4558 5.7102 12.7006 5.87378 12.9067 6.07999L14.6067 7.77999C16.4136 6.68578 18.3825 5.88475 20.4401 5.40666V3.22C20.4418 2.6306 20.6772 2.06595 21.0946 1.64982C21.512 1.23368 22.0773 0.999997 22.6667 1H27.3334C27.9216 1.00176 28.4853 1.23622 28.9012 1.65216C29.3172 2.06811 29.5516 2.63176 29.5534 3.22V5.40666C31.6436 5.89428 33.6422 6.71354 35.4734 7.83332L37.22 6.07999C37.4262 5.87378 37.6709 5.7102 37.9403 5.59859C38.2097 5.48699 38.4984 5.42954 38.79 5.42954C39.0816 5.42954 39.3703 5.48699 39.6397 5.59859C39.9091 5.7102 40.1539 5.87378 40.36 6.07999L43.6667 9.37998C44.0835 9.79747 44.3177 10.3633 44.3177 10.9533C44.3177 11.5433 44.0835 12.1092 43.6667 12.5266L41.98 14.2133C43.2036 16.1259 44.0898 18.2342 44.6 20.4466H46.7867C47.3738 20.4501 47.9357 20.6854 48.3502 21.1011C48.7647 21.5169 48.9983 22.0795 49 22.6666V27.3333C48.9982 27.9215 48.7638 28.4852 48.3478 28.9011C47.9319 29.3171 47.3682 29.5515 46.78 29.5533H44.5933C44.1139 31.6104 43.3129 33.579 42.22 35.3866L43.6667 36.8333C43.8729 37.0394 44.0365 37.2842 44.1481 37.5536C44.2597 37.8229 44.3171 38.1117 44.3171 38.4033C44.3171 38.6948 44.2597 38.9836 44.1481 39.253C44.0365 39.5223 43.8729 39.7671 43.6667 39.9733L40.3667 43.3066C40.1605 43.5128 39.9158 43.6764 39.6464 43.788C39.377 43.8996 39.0883 43.957 38.7967 43.957C38.5051 43.957 38.2164 43.8996 37.947 43.788C37.6776 43.6764 37.4328 43.5128 37.2267 43.3066L35.8934 41.9733C33.9587 43.2201 31.8227 44.1223 29.58 44.6399V46.8266C29.566 47.4113 29.3226 47.9671 28.9022 48.3737C28.4818 48.7804 27.9182 49.0053 27.3334 48.9999ZM14.1267 40.4533C14.2597 40.453 14.3897 40.4924 14.5001 40.5666C16.5393 41.9481 18.8325 42.9112 21.2467 43.3999C21.3996 43.4311 21.5366 43.5149 21.6341 43.6367C21.7315 43.7585 21.7832 43.9106 21.78 44.0666V46.7932C21.7836 47.0261 21.8785 47.2482 22.0444 47.4116C22.2103 47.575 22.4338 47.6666 22.6667 47.6666H27.3334C27.5685 47.6666 27.7941 47.5732 27.9603 47.4069C28.1266 47.2406 28.22 47.0151 28.22 46.7799V44.0532C28.2169 43.8973 28.2685 43.7452 28.366 43.6233C28.4634 43.5015 28.6005 43.4177 28.7534 43.3866C31.2002 42.8942 33.5222 41.9123 35.58 40.4999C35.7084 40.4126 35.8632 40.3728 36.0178 40.3874C36.1723 40.402 36.317 40.4701 36.4267 40.5799L38.16 42.3332C38.3274 42.4998 38.5539 42.5932 38.79 42.5932C39.0261 42.5932 39.2526 42.4998 39.42 42.3332L42.7533 38.9999C42.9198 38.8325 43.0133 38.606 43.0133 38.3699C43.0133 38.1338 42.9198 37.9073 42.7533 37.7399L40.9333 35.9199C40.8274 35.8123 40.7612 35.6719 40.7454 35.5218C40.7297 35.3716 40.7654 35.2205 40.8467 35.0933C42.0971 33.1478 42.9742 30.9865 43.4333 28.7199C43.4645 28.5671 43.5483 28.43 43.6701 28.3326C43.7919 28.2351 43.944 28.1835 44.1 28.1866H46.8267C47.048 28.1751 47.257 28.0811 47.4125 27.9232C47.5679 27.7652 47.6586 27.5548 47.6667 27.3333V22.6666C47.6667 22.4315 47.5732 22.2059 47.407 22.0397C47.2407 21.8734 47.0152 21.78 46.78 21.78H44.0533C43.8974 21.7831 43.7452 21.7315 43.6234 21.634C43.5016 21.5366 43.4178 21.3995 43.3867 21.2466C42.8979 18.8324 41.9349 16.5392 40.5533 14.5C40.4712 14.3714 40.4356 14.2185 40.4526 14.0668C40.4696 13.9151 40.5381 13.7739 40.6467 13.6666L42.72 11.5933C42.8861 11.4271 42.9794 11.2017 42.9794 10.9666C42.9794 10.7316 42.8861 10.5062 42.72 10.34L39.3867 7.03999C39.2193 6.87348 38.9928 6.78001 38.7567 6.78001C38.5206 6.78001 38.2941 6.87348 38.1267 7.03999L36 9.16665C35.892 9.27421 35.7503 9.34148 35.5987 9.35725C35.447 9.37302 35.2946 9.33634 35.1667 9.25332C33.2052 7.96578 31.0179 7.06098 28.72 6.58665C28.5672 6.55549 28.4301 6.47171 28.3327 6.3499C28.2352 6.22808 28.1836 6.07595 28.1867 5.91999V3.22C28.1869 2.9905 28.098 2.76988 27.9389 2.60453C27.7798 2.43917 27.5627 2.34196 27.3334 2.33333H22.6667C22.4316 2.33333 22.206 2.42675 22.0397 2.59303C21.8735 2.75931 21.78 2.98484 21.78 3.22V5.94666C21.7832 6.10262 21.7315 6.25475 21.6341 6.37656C21.5366 6.49837 21.3996 6.58215 21.2467 6.61332C18.9801 7.07242 16.8188 7.94959 14.8734 9.19998C14.7462 9.28129 14.5951 9.317 14.4449 9.30125C14.2947 9.28551 14.1543 9.21925 14.0467 9.11332L11.9734 6.99999C11.806 6.83348 11.5795 6.74001 11.3434 6.74001C11.1073 6.74001 10.8808 6.83348 10.7134 6.99999L7.41341 10.3333C7.24731 10.4996 7.15401 10.725 7.15401 10.96C7.15401 11.195 7.24731 11.4204 7.41341 11.5866L9.41341 13.5866C9.52324 13.6964 9.59134 13.841 9.60594 13.9956C9.62055 14.1501 9.58075 14.3049 9.49341 14.4333C8.0803 16.4866 7.0962 18.804 6.60008 21.2466C6.56891 21.3995 6.48513 21.5366 6.36332 21.634C6.24151 21.7315 6.08938 21.7831 5.93341 21.78H3.22009C3.10365 21.78 2.98835 21.8029 2.88077 21.8475C2.7732 21.892 2.67545 21.9573 2.59312 22.0397C2.51078 22.122 2.44547 22.2197 2.40091 22.3273C2.35635 22.4349 2.33342 22.5502 2.33342 22.6666V27.3333C2.33342 27.5684 2.42684 27.794 2.59312 27.9602C2.7594 28.1265 2.98493 28.2199 3.22009 28.2199H5.94675C6.10271 28.2168 6.25484 28.2684 6.37665 28.3659C6.49846 28.4633 6.58224 28.6004 6.61341 28.7533C7.0865 31.0515 7.99139 33.2391 9.28007 35.1999C9.36309 35.3278 9.39977 35.4803 9.384 35.6319C9.36823 35.7836 9.30096 35.9252 9.19341 36.0333L7.45341 37.7733C7.28691 37.9407 7.19344 38.1672 7.19344 38.4033C7.19344 38.6394 7.28691 38.8659 7.45341 39.0333L10.7534 42.3666C10.9208 42.5331 11.1473 42.6266 11.3834 42.6266C11.6195 42.6266 11.846 42.5331 12.0134 42.3666L13.6667 40.6466C13.7893 40.525 13.9542 40.4557 14.1267 40.4533Z" fill="#A8A5CE" stroke="#A8A5CE"/>
<path d="M25.0022 26.3302C25.7386 26.3302 26.3355 25.7333 26.3355 24.9969C26.3355 24.2605 25.7386 23.6636 25.0022 23.6636C24.2658 23.6636 23.6689 24.2605 23.6689 24.9969C23.6689 25.7333 24.2658 26.3302 25.0022 26.3302Z" fill="#A8A5CE" stroke="#A8A5CE"/>
<path d="M25.0019 25.6618C24.8452 25.6616 24.6936 25.6062 24.5736 25.5054C24.4537 25.4045 24.3731 25.2646 24.3461 25.1102C24.319 24.9559 24.3472 24.7969 24.4257 24.6613C24.5042 24.5256 24.628 24.4219 24.7753 24.3685L33.5419 21.1752C33.6242 21.1449 33.7117 21.1312 33.7993 21.1348C33.8868 21.1384 33.9729 21.1592 34.0524 21.1961C34.132 21.2329 34.2035 21.285 34.2629 21.3495C34.3223 21.414 34.3684 21.4895 34.3986 21.5718C34.4288 21.6541 34.4425 21.7416 34.4389 21.8291C34.4353 21.9167 34.4145 22.0028 34.3777 22.0823C34.3408 22.1619 34.2887 22.2334 34.2242 22.2928C34.1598 22.3522 34.0842 22.3983 34.0019 22.4285L25.2286 25.6218C25.1559 25.6482 25.0792 25.6617 25.0019 25.6618Z" fill="#A8A5CE" stroke="#A8A5CE"/>
<path d="M27.6648 29.4926C27.5579 29.4931 27.4525 29.468 27.3573 29.4193C27.2622 29.3705 27.1801 29.2996 27.1181 29.2126L24.4515 25.3859C24.3614 25.2408 24.3305 25.0666 24.3651 24.8993C24.3997 24.732 24.4972 24.5844 24.6374 24.4869C24.7777 24.3894 24.95 24.3495 25.1188 24.3754C25.2877 24.4012 25.4402 24.4909 25.5448 24.6259L28.2115 28.4459C28.3127 28.5901 28.3527 28.7686 28.3227 28.9422C28.2927 29.1159 28.1952 29.2706 28.0515 29.3726C27.9381 29.4517 27.803 29.4936 27.6648 29.4926Z" fill="#A8A5CE" stroke="#A8A5CE"/>
</svg>

<svg viewBox="0 0 50 50" fill="none" xmlns="http://www.w3.org/2000/svg"><path d="M25 39a14 14 0 110-28 14 14 0 010 28zm0-26.66a12.67 12.67 0 100 25.33 12.67 12.67 0 000-25.33z" fill="#A8A5CE" stroke="#A8A5CE"/><path d="M27.33 49h-4.66a2.23 2.23 0 01-2.22-2.22v-2.19a19.84 19.84 0 01-6.24-2.62l-1.3 1.34a2.22 2.22 0 01-3.14 0l-3.3-3.34a2.22 2.22 0 010-3.14l1.34-1.33a20.1 20.1 0 01-2.43-5.92H3.22A2.22 2.22 0 011 27.33v-4.66a2.23 2.23 0 012.22-2.22h2.19a19.93 19.93 0 012.66-6.32l-1.6-1.6a2.23 2.23 0 010-3.15l3.3-3.3a2.22 2.22 0 013.14 0l1.7 1.7a20 20 0 015.83-2.37V3.22A2.23 2.23 0 0122.67 1h4.66a2.23 2.23 0 012.22 2.22v2.19a20.1 20.1 0 015.92 2.42l1.75-1.75a2.22 2.22 0 013.14 0l3.3 3.3a2.23 2.23 0 010 3.15l-1.68 1.68a19.84 19.84 0 012.62 6.24h2.19A2.23 2.23 0 0149 22.67v4.66a2.23 2.23 0 01-2.22 2.22h-2.19a20.09 20.09 0 01-2.37 5.84l1.45 1.44a2.22 2.22 0 010 3.14l-3.3 3.34a2.22 2.22 0 01-3.14 0l-1.34-1.34a19.93 19.93 0 01-6.31 2.67v2.19A2.23 2.23 0 0127.33 49zm-13.2-8.55c.13 0 .26.04.37.12a18.61 18.61 0 006.75 2.83.67.67 0 01.53.67v2.72a.89.89 0 00.89.88h4.66a.89.89 0 00.89-.89v-2.73a.67.67 0 01.53-.66c2.45-.5 4.77-1.48 6.83-2.89a.67.67 0 01.85.08l1.73 1.75a.9.9 0 001.26 0L42.75 39a.9.9 0 000-1.26l-1.82-1.82a.67.67 0 01-.08-.83 18.63 18.63 0 002.58-6.37.67.67 0 01.67-.53h2.73a.89.89 0 00.84-.86v-4.66a.89.89 0 00-.89-.89h-2.73a.67.67 0 01-.66-.53 18.61 18.61 0 00-2.84-6.75.67.67 0 01.1-.83l2.07-2.08a.89.89 0 000-1.25l-3.33-3.3a.9.9 0 00-1.26 0L36 9.17a.67.67 0 01-.83.08 18.6 18.6 0 00-6.45-2.66.67.67 0 01-.53-.67v-2.7a.89.89 0 00-.86-.89h-4.66a.89.89 0 00-.89.89v2.73a.67.67 0 01-.53.66 18.63 18.63 0 00-6.38 2.59.67.67 0 01-.82-.09L11.97 7a.9.9 0 00-1.26 0l-3.3 3.33a.89.89 0 000 1.26l2 2a.67.67 0 01.08.84 18.52 18.52 0 00-2.89 6.82.67.67 0 01-.67.53H3.22a.89.89 0 00-.89.89v4.66a.89.89 0 00.89.89h2.73a.67.67 0 01.66.53c.48 2.3 1.38 4.49 2.67 6.45a.67.67 0 01-.09.83l-1.74 1.74a.9.9 0 000 1.26l3.3 3.34a.9.9 0 001.26 0l1.66-1.72c.12-.13.28-.2.46-.2z" fill="#A8A5CE" stroke="#A8A5CE"/><path d="M25 26.33a1.33 1.33 0 100-2.67 1.33 1.33 0 000 2.67z" fill="#A8A5CE" stroke="#A8A5CE"/><path d="M25 25.66a.67.67 0 01-.22-1.3l8.76-3.18a.67.67 0 11.46 1.25l-8.77 3.2a.67.67 0 01-.23.03z" fill="#A8A5CE" stroke="#A8A5CE"/><path d="M27.66 29.5a.67.67 0 01-.54-.29l-2.67-3.82a.67.67 0 011.1-.76l2.66 3.82a.67.67 0 01-.55 1.04z" fill="#A8A5CE" stroke="#A8A5CE"/></svg>
